assets/telegram.svg

<svg width='81' height='81' viewBox='0 0 81 81' fill='none' xmlns='http://www.w3.org/2000/svg'><path d='M67.9167 10.758C67.039 10.7968 66.2213 11.0524 65.5015 11.3434C64.8271 11.6146 62.2507 12.7197 58.1925 14.46C54.1308 16.2018 48.7526 18.5108 43.0155 20.978C31.5414 25.9122 18.6415 31.4665 12.0341 34.3092C11.7856 34.4161 10.9187 34.693 9.99854 35.4114C9.07839 36.1297 8.1001 37.6182 8.1001 39.2768C8.1001 40.6142 8.73748 41.9429 9.53975 42.7362C10.342 43.5294 11.1909 43.9213 11.9181 44.218C14.5564 45.2945 22.7391 48.6431 24.2843 49.2752C24.8281 50.9411 27.7898 60.001 28.4767 62.2215C28.9294 63.6868 29.3604 64.6045 29.9216 65.3328C30.2022 65.697 30.5283 66.0161 30.9235 66.2662C31.0815 66.3662 31.2547 66.4432 31.4298 66.5141L31.4403 66.5194C31.4807 66.5356 31.5154 66.5631 31.5563 66.5774C31.6335 66.6044 31.6851 66.6076 31.7884 66.6301C32.1997 66.7629 32.6149 66.8463 32.9854 66.8463C34.5654 66.8463 35.5325 65.9762 35.5325 65.9762L35.5905 65.934L43.7169 58.9045L53.5729 68.228C53.7117 68.4242 55.006 70.2002 57.8603 70.2002C59.555 70.2002 60.8995 69.3498 61.7626 68.4442C62.6257 67.5385 63.1635 66.5871 63.3921 65.3909V65.3856C63.6059 64.2552 72.6892 17.6241 72.6892 17.6241L72.6733 17.6873C72.9392 16.4736 73.0089 15.3434 72.7155 14.228C72.4221 13.1126 71.649 12.0446 70.6905 11.47C69.7321 10.8954 68.7943 10.7193 67.9167 10.758ZM67.4104 16.4006C67.3975 16.4794 67.4202 16.4398 67.3999 16.5325L67.3946 16.5641L67.3894 16.5957C67.3894 16.5957 58.4186 62.6304 58.087 64.3836C58.1113 64.2512 58.0003 64.5145 57.8866 64.6737C57.7258 64.5628 57.3962 64.4205 57.3962 64.4205L57.3435 64.3625L43.8804 51.6272L34.3618 59.8537L37.1937 48.5159C37.1937 48.5159 54.8953 30.1919 55.9618 29.1254C56.8204 28.2722 57.0007 27.9748 57.0007 27.6805C57.0007 27.2863 56.7952 27.0002 56.3362 27.0002C55.9231 27.0002 55.3676 27.4018 55.0706 27.5908C51.2012 30.0574 34.214 39.9579 26.5993 44.3867C25.3892 43.8915 16.9822 40.4502 14.1329 39.2873C14.1545 39.2779 14.1474 39.2812 14.1698 39.2715C20.7789 36.428 33.6735 30.8738 45.146 25.9403C50.8822 23.4735 56.2645 21.1627 60.3229 19.4223C64.3189 17.7087 67.0954 16.5293 67.4104 16.4006Z' fill='#53B39C'/></svg>

<svg version="1.2" xmlns="http://www.w3.org/2000/svg" viewBox="0 0 81 81" width="82" height="82">
	<title>telegram</title>
	<style>
		.s0 { fill: #e951b9 } 
	</style>
	<path class="s0" d="m67.9 10.8c-0.9 0-1.7 0.3-2.4 0.5-0.7 0.3-3.2 1.4-7.3 3.2-4.1 1.7-9.4 4-15.2 6.5-11.5 4.9-24.4 10.5-31 13.3-0.2 0.1-1.1 0.4-2 1.1-0.9 0.7-1.9 2.2-1.9 3.9 0 1.3 0.6 2.6 1.4 3.4 0.8 0.8 1.7 1.2 2.4 1.5 2.7 1.1 10.8 4.4 12.4 5.1 0.5 1.6 3.5 10.7 4.2 12.9 0.4 1.5 0.9 2.4 1.4 3.1q0.4 0.6 1 1 0.3 0.1 0.5 0.2 0.1 0 0.2 0.1c0 0 0.1 0 0.2 0q0.6 0.2 1.2 0.2c1.6 0 2.5-0.8 2.5-0.8l0.1-0.1 8.1-7 9.9 9.3c0.1 0.2 1.4 2 4.3 2 1.7 0 3-0.9 3.9-1.8 0.8-0.9 1.4-1.8 1.6-3 0.2-1.1 9.3-47.8 9.3-47.8v0.1c0.2-1.2 0.3-2.4 0-3.5-0.3-1.1-1.1-2.2-2-2.7-1-0.6-1.9-0.8-2.8-0.7zm-0.5 5.6c0 0.1 0 0 0 0.1v0.1c0 0-9 46-9.3 47.8 0-0.1-0.1 0.1-0.2 0.3-0.2-0.1-0.5-0.3-0.5-0.3h-0.1l-13.4-12.8-9.5 8.3 2.8-11.4c0 0 17.7-18.3 18.8-19.4 0.8-0.8 1-1.1 1-1.4 0-0.4-0.2-0.7-0.7-0.7-0.4 0-0.9 0.4-1.2 0.6-3.9 2.5-20.9 12.4-28.5 16.8-1.2-0.5-9.6-3.9-12.5-5.1 0.1 0 0 0 0.1 0 6.6-2.9 19.5-8.4 30.9-13.4 5.8-2.4 11.2-4.7 15.2-6.5 4-1.7 6.8-2.9 7.1-3z"/>
</svg>
